X:0296
T:When I follow'd a Lass.
M:6/8
L:1/8
Q:3/8=108
I: :: ::
Z:Jack Campin * www.campin.me.uk * 2009
K:G
G/A/|B>cB B>AG|ABA  A2d/c/|B>AG A>GF|GAG G2
G/A/|B>cB B>AG|ABA  Adc   |BAG  AGF |G2G G2:|
d   |g2d Te2d |dgd Te2d   |gfe  dBG |ABA A2
d/c/|BcB  BAG |ABA  Adc   |BAG  AGF |GGG G2:|

